!!!!SEGMENT: pl-sa--481-a-viii-121--037_anonim--marsz.krn
!!!cenid: 18xx:408
!!!COM: Anonim
!!!COM-rismID: pe30004985
!!!CDT:
!!!CNT:
!!!OTL: Marsz
!!!PDT:
!!!AGN: Secular; March
!!!SMS-siglum: PL-SA
!!!SMS-shelfmark: 481/A VIII 121
!!!SMS-shelfwork: 037 W
!!!SMS-variant:
!!!SMS-altvar:
!!!NIFC-rismSourceID: 1001070711
!!!NIFC-islandoraID:
!!!URL-pdf-islandora:
!!!URL-scan: https://bc.bdsandomierz.pl/dlibra/publication/1212/edition/1171/content @EN{Scan in the Sandomierz Diocese Digital Library} @PL{Skany w portalu Cyfrowa Biblioteka Diecezjalna w Sandomierzu}
!!!ONB-nifc: Str. 25, s. 2-3
!!!AIN: 2 empty
!!!key:
**kern	**kern
*part2	*part1
*staff2	*staff1
*Iempty	*Iempty
*I"Marsz	*
*clefF4	*clefG2
*k[]	*k[]
*C:	*C:
*M2/2	*M2/2
*met(c|)	*met(c|)
=1	=1
!	!LO:TX:a:t=P:global:problem=kaudy z prawej strony
4C/	4cc\ 4ee
4c\	8ee\L 8gg
.	8cc\J 8ee
4G\	4b\ 4dd
4GG/	8dd\L 8ff
.	8b\J 8dd
=2	=2
8C\L	4cc\
8E\	.
8G\	8ee\L
8c\J	8cc\J
4G\	4.g/
4F\	.
.	16a/LL
.	16b/JJ
=3	=3
4E\	4.cc\
4C/	.
.	16dd\LL
.	16ee\JJ
4B\	8ff\L
.	8dd\
4c\	8ee\
.	8cc\J
=4	=4
4G\	4dd\
4GG/	8.b\L 8.gg
.	16b\Jk 16gg
8G\L	4b\ 4gg
8F\	.
8E\	4r
8D\J	.
=5||	=5||
4C/	4cc\ 4ee
4c\	8ee\L 8gg
.	8cc\J 8ee
4G\	4b\ 4dd
4GG/	8dd\L 8ff
.	8b\J 8dd
!!LO:LB:g=original
=6	=6
8C\L	4cc\
8E\	.
8G\	8ee\L
8c\J	8cc\J
4G\	4.g/
4F\	.
.	16a/LL
.	16b/JJ
=7	=7
*	*Xtuplet
4E\	(>12cc\L
.	12dd\)
.	12ee\J
4F\	(>12ff\L
.	12gg\)
.	12aa\J
4G\	4cc\ 4ee
4GG/	4g\ 4dd
=8	=8
!LO:TX:a:t=P:problem=mixed beam	!
8.C/L	4e/ 4cc
16c\K	.
8.G\	8.e/L 8.cc
16E\Jk	16e/Jk 16cc
4C/	4e/ 4cc
4r	4r
=9:|!|:	=9:|!|:
4G\	4g/
8.G\L	8.g/L
16G\Jk	16g/Jk
4B\	4b\
4d\	4dd\
=10	=10
4B\	4b\
8d\L	8dd\L
8B\J	8b\J
4G\	4g/
4r	4r
=11	=11
4B\	4dd\ 4ff
4G\	8.dd\L 8.ff
.	16dd\Jk 16ff
4c\	4cc\ 4ee
!	!LO:TX:i:b:t=dal Segno
4C/	8.cc\L 8.ee
.	16cc\Jk 16ee
=12	=12
4G\	4b\ 4dd
4GG/	8.b\L 8.gg
.	16b\Jk 16gg
8G\L	4b\ 4gg
8F\	.
8E\	4r
8D\J	.
==	==
*-	*-
!!!system-decoration: [(s1,s2)]
!!!RDF**kern: > = above
!!!RDF**kern: < = below
!!!EED: Mateusz Mrugas
!!!EEV: 2020-11-22
!!!ENC: Berenika Jozajtis
!!!END: 2020-06-16
